X:1
T:Adieu Dundee
M:6/8
L:1/8
Z:Nigel Gatherer
K:Emin
E/D/|B,>EE E>FG|F>ED F<AA|B>cB ABd|B>AF E2 E/D/|
B,>EE E>FG|F>ED F<AA|B>cB ABd|B>AG/F/ E2:|
|:F/E/|D>FA def|FED F<AA|Bee ede|f>ed/^c/ B2c|
ded def|F>ED F<AA|B>=cB ABd|B>AF E2:||
